rospo-dark/symbolic/places/internet-radio-symbolic.svg

<svg height="16" width="16" xmlns="http://www.w3.org/2000/svg"><path d="m8 0a7 7 0 0 0 -7 7 7 7 0 0 0 5 6.701172v-2.121094a5 5 0 0 1 -3-4.580078 5 5 0 0 1 5-5 5 5 0 0 1 5 5 5 5 0 0 1 -3 4.576172v2.128906a7 7 0 0 0 5-6.705078 7 7 0 0 0 -7-7zm0 4c-1.6568542 0-3 1.3431458-3 3 .0017816 1.2698043.8028154 2.4009515 2 2.8242188v5.1757812c0 .554.446 1 1 1s1-.446 1-1v-5.1738281c1.197859-.4235068 1.999045-1.5556507 2-2.8261719 0-1.6568542-1.3431458-3-3-3z" fill="#d3dae3"/></svg>

<svg xmlns="http://www.w3.org/2000/svg" id="svg2" width="16" height="16" version="1.1">
 <path style="fill:#d3dae3" d="M 8 0 A 7 7 0 0 0 1 7 A 7 7 0 0 0 6 13.701172 L 6 11.580078 A 5 5 0 0 1 3 7 A 5 5 0 0 1 8 2 A 5 5 0 0 1 13 7 A 5 5 0 0 1 10 11.576172 L 10 13.705078 A 7 7 0 0 0 15 7 A 7 7 0 0 0 8 0 z M 8 4 C 6.3431458 4 5 5.3431458 5 7 C 5.0017816 8.2698043 5.8028154 9.4009515 7 9.8242188 L 7 15 C 7 15.554 7.446 16 8 16 C 8.554 16 9 15.554 9 15 L 9 9.8261719 C 10.197859 9.4026651 10.999045 8.2705212 11 7 C 11 5.3431458 9.6568542 4 8 4 z"/>
</svg>
